assets/img/gm-inner.svg

<svg fill="none" height="134" viewBox="0 0 158 134" width="158" xmlns="http://www.w3.org/2000/svg"><path clip-rule="evenodd" d="m.584563 49.1255c-2.480203-17.303 9.536037-33.3404 26.838937-35.8206l90.3475-12.950482c17.303-2.480208 33.341 9.536002 35.821 26.838982l3.24 22.6059c1.534 10.7029-5.898 20.6231-16.601 22.1572-10.703 1.5342-18.136 11.4543-16.602 22.1572l.915 6.3823c2.039 14.228-7.841 27.415-22.069 29.454l-24.9806 3.581c-14.2277 2.039-27.4148-7.841-29.4542-22.069l-.9874-6.889c-1.4941-10.4231-11.1547-17.6614-21.5776-16.1674-10.423 1.494-20.08361-5.7443-21.57764-16.1673zm62.840737-1.4794c1.9082 13.3125-6.4017 25.5174-18.5607 27.2602-12.159 1.7429-23.5628-7.6362-25.471-20.9487-1.9082-13.3126 6.4017-25.5174 18.5607-27.2603 12.159-1.7428 23.5628 7.6362 25.471 20.9488zm54.5877 16.7751c12.159-1.7429 20.469-13.9477 18.561-27.2603-1.908-13.3125-13.312-22.6916-25.471-20.9487s-20.4689 13.9477-18.5607 27.2602c1.9082 13.3126 13.3117 22.6917 25.4707 20.9488zm-56.4002 20.093c-.4337-3.0256 1.6674-5.8298 4.6929-6.2635l2.3987-.3438c6.051-.8673 11.6595 3.3348 12.5269 9.3859l.3438 2.3987c.4337 3.0255-1.6674 5.8297-4.6929 6.2634l-2.3988.3438c-6.051.8674-11.6594-3.3348-12.5268-9.3858zm34.4827-10.6473c-6.0511.8673-10.2532 6.4758-9.3859 12.5268l.3438 2.3987c.4337 3.0255 3.2379 5.1266 6.2635 4.693l2.3987-.3439c6.0514-.8673 10.2534-6.4758 9.3854-12.5268l-.343-2.3987c-.434-3.0255-3.238-5.1266-6.2638-4.693z" fill="#fff" fill-rule="evenodd"/></svg>

<svg width="158" height="134" viewBox="0 0 158 134" fill="none" xmlns="http://www.w3.org/2000/svg">
<path fill-rule="evenodd" clip-rule="evenodd" d="M0.584563 49.1255C-1.89564 31.8225 10.1206 15.7851 27.4235 13.3049L117.771 0.354418C135.074 -2.12579 151.112 9.89042 153.592 27.1934L156.832 49.7993C158.366 60.5022 150.934 70.4224 140.231 71.9565C129.528 73.4907 122.095 83.4108 123.629 94.1137L124.544 100.496C126.583 114.724 116.703 127.911 102.475 129.95L77.4944 133.531C63.2667 135.57 50.0796 125.69 48.0402 111.462L47.0528 104.573C45.5587 94.1499 35.8981 86.9116 25.4752 88.4056C15.0522 89.8996 5.39159 82.6613 3.89756 72.2383L0.584563 49.1255ZM63.4253 47.6461C65.3335 60.9586 57.0236 73.1635 44.8646 74.9063C32.7056 76.6492 21.3018 67.2701 19.3936 53.9576C17.4854 40.645 25.7953 28.4402 37.9543 26.6973C50.1133 24.9545 61.5171 34.3335 63.4253 47.6461ZM118.013 64.4212C130.172 62.6783 138.482 50.4735 136.574 37.1609C134.666 23.8484 123.262 14.4693 111.103 16.2122C98.944 17.9551 90.6341 30.1599 92.5423 43.4724C94.4505 56.785 105.854 66.1641 118.013 64.4212ZM61.6128 84.5142C61.1791 81.4886 63.2802 78.6844 66.3057 78.2507L68.7044 77.9069C74.7554 77.0396 80.3639 81.2417 81.2313 87.2928L81.5751 89.6915C82.0088 92.717 79.9077 95.5212 76.8822 95.9549L74.4834 96.2987C68.4324 97.1661 62.824 92.9639 61.9566 86.9129L61.6128 84.5142ZM96.0955 73.8669C90.0444 74.7342 85.8423 80.3427 86.7096 86.3937L87.0534 88.7924C87.4871 91.8179 90.2913 93.919 93.3169 93.4854L95.7156 93.1415C101.767 92.2742 105.969 86.6657 105.101 80.6147L104.758 78.216C104.324 75.1905 101.52 73.0894 98.4942 73.523L96.0955 73.8669Z" fill="white"/>
</svg>
